svg/shop.svg

<?xml version="1.0" encoding="UTF-8" standalone="no"?>
<svg
   width="25"
   height="25"
   viewBox="0 0 25 25"
   fill="none"
   version="1.1"
   id="svg2"
   sodipodi:docname="shop.svg"
   inkscape:version="1.4 (86a8ad7, 2024-10-11)"
   xmlns:inkscape="http://www.inkscape.org/namespaces/inkscape"
   xmlns:sodipodi="http://sodipodi.sourceforge.net/DTD/sodipodi-0.dtd"
   xmlns="http://www.w3.org/2000/svg"
   xmlns:svg="http://www.w3.org/2000/svg">
  <defs
     id="defs2" />
  <sodipodi:namedview
     id="namedview2"
     pagecolor="#ffffff"
     bordercolor="#000000"
     borderopacity="0.25"
     inkscape:showpageshadow="2"
     inkscape:pageopacity="0.0"
     inkscape:pagecheckerboard="0"
     inkscape:deskcolor="#d1d1d1"
     inkscape:zoom="31.32"
     inkscape:cx="12.5"
     inkscape:cy="12.5"
     inkscape:window-width="1920"
     inkscape:window-height="1001"
     inkscape:window-x="-9"
     inkscape:window-y="-9"
     inkscape:window-maximized="1"
     inkscape:current-layer="svg2" />
  <g
     id="g2"
     transform="translate(0.27109417,0.14765)">
    <path
       d="M 4.00679,4.01154 C 3.82575,4.37243 3.73671,4.81763 3.55863,5.70803 l -0.59792,2.9896 c -0.37859,1.89297 1.06927,3.65907 2.99972,3.65907 1.57163,0 2.88756,-1.1909 3.04394,-2.75473 L 9.07338,8.91185 c -0.16309,1.84865 1.29402,3.44485 3.15532,3.44485 1.8739,0 3.3382,-1.618 3.1517,-3.48263 l 0.073,0.7279 c 0.1564,1.56383 1.4723,2.75473 3.044,2.75473 1.9304,0 3.3783,-1.7661 2.9997,-3.65907 L 20.8992,5.70803 C 20.7211,4.81765 20.632,4.37243 20.451,4.01154 20.0695,3.25109 19.3831,2.68838 18.5626,2.46345 18.1732,2.3567 17.7192,2.3567 16.8112,2.3567 H 14.7287 7.64659 c -0.90802,0 -1.36204,0 -1.75143,0.10675 -0.82049,0.22493 -1.5069,0.78764 -1.88837,1.54809 z"
       fill="#2d2d2d"
       id="path1" />
    <path
       d="m 18.4974,13.8567 c 0.8171,0 1.5763,-0.2124 2.2315,-0.5811 v 1.0811 c 0,3.7712 0,5.6568 -1.1716,6.8284 -0.9431,0.9431 -2.3488,1.127 -4.8284,1.1629 v -3.4913 c 0,-0.9346 0,-1.4019 -0.201,-1.75 -0.1316,-0.228 -0.321,-0.4174 -0.549,-0.549 -0.3481,-0.201 -0.8154,-0.201 -1.75,-0.201 -0.9346,0 -1.4019,0 -1.75,0.201 -0.228,0.1316 -0.4174,0.321 -0.54906,0.549 -0.20096,0.3481 -0.20096,0.8154 -0.20096,1.75 V 22.348 C 7.24931,22.3121 5.84354,22.1282 4.90045,21.1851 3.72888,20.0135 3.72888,18.1279 3.72888,14.3567 v -1.0811 c 0.65524,0.3687 1.41439,0.5811 2.23157,0.5811 1.19707,0 2.2946,-0.4636 3.11278,-1.2281 0.82733,0.7602 1.93217,1.2281 3.15547,1.2281 1.2234,0 2.3283,-0.468 3.1557,-1.2283 0.8182,0.7646 1.9158,1.2283 3.113,1.2283 z"
       fill="#2d2d2d"
       id="path2" />
  </g>
</svg>

<svg width="25" height="25" viewBox="0 0 25 25" fill="none" xmlns="http://www.w3.org/2000/svg">
<path d="M4.00679 4.01154C3.82575 4.37243 3.73671 4.81763 3.55863 5.70803L2.96071 8.69763C2.58212 10.5906 4.02998 12.3567 5.96043 12.3567C7.53206 12.3567 8.84799 11.1658 9.00437 9.60197L9.07338 8.91185C8.91029 10.7605 10.3674 12.3567 12.2287 12.3567C14.1026 12.3567 15.5669 10.7387 15.3804 8.87407L15.4534 9.60197C15.6098 11.1658 16.9257 12.3567 18.4974 12.3567C20.4278 12.3567 21.8757 10.5906 21.4971 8.69763L20.8992 5.70803C20.7211 4.81765 20.632 4.37243 20.451 4.01154C20.0695 3.25109 19.3831 2.68838 18.5626 2.46345C18.1732 2.3567 17.7192 2.3567 16.8112 2.3567H14.7287H7.64659C6.73857 2.3567 6.28455 2.3567 5.89516 2.46345C5.07467 2.68838 4.38826 3.25109 4.00679 4.01154Z" fill="#2D2D2D"/>
<path d="M18.4974 13.8567C19.3145 13.8567 20.0737 13.6443 20.7289 13.2756V14.3567C20.7289 18.1279 20.7289 20.0135 19.5573 21.1851C18.6142 22.1282 17.2085 22.3121 14.7289 22.348V18.8567C14.7289 17.9221 14.7289 17.4548 14.5279 17.1067C14.3963 16.8787 14.2069 16.6893 13.9789 16.5577C13.6308 16.3567 13.1635 16.3567 12.2289 16.3567C11.2943 16.3567 10.827 16.3567 10.4789 16.5577C10.2509 16.6893 10.0615 16.8787 9.92984 17.1067C9.72888 17.4548 9.72888 17.9221 9.72888 18.8567V22.348C7.24931 22.3121 5.84354 22.1282 4.90045 21.1851C3.72888 20.0135 3.72888 18.1279 3.72888 14.3567V13.2756C4.38412 13.6443 5.14327 13.8567 5.96045 13.8567C7.15752 13.8567 8.25505 13.3931 9.07323 12.6286C9.90056 13.3888 11.0054 13.8567 12.2287 13.8567C13.4521 13.8567 14.557 13.3887 15.3844 12.6284C16.2026 13.393 17.3002 13.8567 18.4974 13.8567Z" fill="#2D2D2D"/>
</svg>
